packages/dnb-eufemia/assets/icons/cat_medium.svg

<svg width="24" height="24" viewBox="0 0 24 24" fill="none" xmlns="http://www.w3.org/2000/svg">
<path d="M3.511 16.0218C3.17486 15.1392 3.02563 14.281 3.03388 13.4619M16.5 21.0913C13.7927 22.9696 10.2073 22.9696 7.5 21.0913M20.489 16.0218C20.8251 15.1392 20.9744 14.281 20.9661 13.4619M9.75 19.509C10.2219 19.4714 10.6763 19.3127 11.0702 19.0481C11.464 18.7835 11.7841 18.4217 12 17.9972M12 17.9972C12.2159 18.4217 12.536 18.7835 12.9298 19.0481C13.3237 19.3127 13.7781 19.4714 14.25 19.509M12 17.9972V17.9123M18.75 15.7295L23.25 16.4854M18 17.9972L21.75 20.2649M5.25 15.7295L0.75 16.4854M6 17.9972L2.25 20.2649M3.03388 13.4619L3 3.00137C3.00027 1.78998 4.47103 1.04239 5.437 1.82117L10.6395 6.0006M3.03388 13.4619C3.07301 9.57711 6.6542 6.57056 10.6395 6.0006M20.9661 13.4619L21 3.00137C20.9997 1.76249 19.5229 1.04729 18.563 1.82117L13.2961 6.0006M20.9661 13.4619C20.927 9.57711 17.2919 6.57056 13.2961 6.0006M10.6395 6.0006C11.1124 5.93296 11.5225 5.90286 12 5.90321C12.4335 5.90627 12.8669 5.93938 13.2961 6.0006M12 17.9123C12.9822 17.9123 13.9644 17.3107 14.25 16.1075C14.25 15.4776 13.243 14.9736 12 14.9736C10.757 14.9736 9.75 15.4776 9.75 16.1075C10.0356 17.3107 11.0178 17.9123 12 17.9123Z" stroke="black" stroke-width="1.5" stroke-linecap="round" stroke-linejoin="round"/>
<path d="M10 12C10 12.5523 9.55228 13 9 13C8.44772 13 8 12.5523 8 12C8 11.4477 8.44772 11 9 11C9.55228 11 10 11.4477 10 12Z" fill="black"/>
<path d="M16 12C16 12.5523 15.5523 13 15 13C14.4477 13 14 12.5523 14 12C14 11.4477 14.4477 11 15 11C15.5523 11 16 11.4477 16 12Z" fill="black"/>
</svg>

<svg width="24" height="24" viewBox="0 0 24 24" fill="none" xmlns="http://www.w3.org/2000/svg"><path d="M3.511 16.022a6.966 6.966 0 0 1-.477-2.56m13.466 7.63a7.892 7.892 0 0 1-9 0m12.989-5.07a6.976 6.976 0 0 0 .477-2.56M9.75 19.509a2.76 2.76 0 0 0 1.32-.46 2.79 2.79 0 0 0 .93-1.052m0 0c.216.425.536.787.93 1.051a2.76 2.76 0 0 0 1.32.461M12 17.997v-.085m6.75-2.182 4.5.755M18 17.997l3.75 2.268m-16.5-4.536-4.5.756M6 17.997l-3.75 2.268m.784-6.803L3 3.002c0-1.212 1.471-1.96 2.437-1.18L10.639 6m-7.605 7.46C3.073 9.576 6.654 6.57 10.64 6m10.326 7.46L21 3.002c0-1.239-1.477-1.954-2.437-1.18l-5.267 4.18m7.67 7.46c-.039-3.884-3.674-6.89-7.67-7.46M10.64 6a9.113 9.113 0 0 1 2.656 0M12 17.912c.982 0 1.964-.601 2.25-1.804 0-.63-1.007-1.134-2.25-1.134s-2.25.504-2.25 1.134c.286 1.203 1.268 1.804 2.25 1.804ZM8.823 12.01h.346m5.652 0h.346m-5.919 0c0 .183-.16.243-.248.243-.092 0-.252-.06-.252-.243 0-.197.16-.257.252-.257.088 0 .248.06.248.257Zm5.998 0c0 .183-.16.243-.248.243-.091 0-.252-.06-.252-.243 0-.197.16-.257.252-.257.088 0 .248.06.248.257Z" stroke="#000" stroke-width="1.5" stroke-linecap="round" stroke-linejoin="round"/></svg>
